SharedPackages/Infrastructure/DesignResourcesKitIcons/Sources/DesignResourcesKitIcons/DesignSystemImages.xcassets/Color/16px/Bookmark-Favorite-Color-16.imageset/Bookmark-Favorite-Color-16.svg

<svg width="16" height="16" viewBox="0 0 16 16" fill="none" xmlns="http://www.w3.org/2000/svg">
<g clip-path="url(#clip0_13193_106337)">
<path d="M10.125 0.5H5.875C4.01104 0.5 2.5 2.01104 2.5 3.875V13.823C2.5 15.1756 4.01163 15.9785 5.13234 15.2212L7.05516 13.9218C7.626 13.5361 8.374 13.5361 8.94484 13.9218L10.8677 15.2212C11.9884 15.9785 13.5 15.1756 13.5 13.823V3.875C13.5 2.01104 11.989 0.5 10.125 0.5Z" fill="#4397E0"/>
<path d="M7.53189 4.31368C7.69984 3.89544 8.29191 3.89544 8.45986 4.31368L9.04171 5.76262C9.11323 5.94072 9.28039 6.06217 9.47188 6.07515L11.0297 6.18078C11.4794 6.21127 11.6623 6.77436 11.3165 7.06334L10.1182 8.06446C9.97096 8.18752 9.90711 8.38402 9.95393 8.57015L10.3349 10.0844C10.4448 10.5215 9.96583 10.8695 9.58413 10.6298L8.26173 9.79961C8.09918 9.69756 7.89256 9.69756 7.73002 9.79961L6.40762 10.6298C6.02591 10.8695 5.54691 10.5215 5.65687 10.0844L6.03781 8.57015C6.08463 8.38402 6.02078 8.18752 5.8735 8.06446L4.67528 7.06334C4.32941 6.77436 4.51237 6.21127 4.96204 6.18078L6.51987 6.07515C6.71135 6.06217 6.87851 5.94072 6.95003 5.76262L7.53189 4.31368Z" fill="white"/>
<path d="M10.125 0C12.2651 0 14 1.7349 14 3.875V13.8232C13.9996 15.5762 12.0405 16.6171 10.5879 15.6357L8.66504 14.3359C8.26334 14.0645 7.73666 14.0645 7.33496 14.3359L5.41211 15.6357C3.95951 16.6171 2.00036 15.5762 2 13.8232V3.875C2 1.7349 3.7349 5.19798e-08 5.875 0H10.125ZM5.875 1C4.28718 1 3 2.28718 3 3.875V13.8232C3.00036 14.7747 4.06406 15.3402 4.85254 14.8076L6.77539 13.5078C7.51526 13.008 8.48474 13.008 9.22461 13.5078L11.1475 14.8076C11.9359 15.3402 12.9996 14.7747 13 13.8232V3.875C13 2.28718 11.7128 1 10.125 1H5.875ZM6.65527 3.82715C7.19983 2.72437 8.79228 2.72446 9.33691 3.82715L9.3877 3.94043L9.85254 5.09863L11.0977 5.18262L11.2217 5.19629C12.4386 5.37359 12.9311 6.88841 12.0508 7.74707L11.958 7.83008L11 8.62988L11.3047 9.83984L11.3311 9.96191C11.5387 11.1742 10.2499 12.111 9.16113 11.5391L9.05273 11.4766L7.99609 10.8125L6.93945 11.4766C5.79437 12.1951 4.35766 11.151 4.6875 9.83984L4.99121 8.62988L4.03418 7.83008C2.99735 6.96311 3.54601 5.27434 4.89453 5.18262L6.13867 5.09863L6.60449 3.94043L6.65527 3.82715ZM8.45996 4.31348C8.29189 3.89554 7.70022 3.89547 7.53223 4.31348L6.9502 5.7627L6.91895 5.82617C6.83646 5.96885 6.68797 6.06376 6.52051 6.0752L4.96191 6.18066C4.51261 6.21154 4.33004 6.77461 4.67578 7.06348L5.87402 8.06445C6.02124 8.18751 6.0849 8.38422 6.03809 8.57031L5.65723 10.084C5.5543 10.4935 5.96836 10.8251 6.33496 10.668L6.4082 10.6299L7.73047 9.7998C7.89292 9.69785 8.09923 9.69794 8.26172 9.7998L9.58398 10.6299C9.94188 10.8546 10.3853 10.5626 10.3486 10.165L10.335 10.084L9.9541 8.57031C9.90734 8.38433 9.9711 8.18751 10.1182 8.06445L11.3164 7.06348C11.6406 6.79258 11.5006 6.28048 11.1113 6.19238L11.0303 6.18066L9.47168 6.0752C9.30434 6.06366 9.15567 5.96877 9.07324 5.82617L9.04199 5.7627L8.45996 4.31348Z" fill="#045EB2"/>
</g>
<defs>
<clipPath id="clip0_13193_106337">
<rect width="16" height="16" fill="white"/>
</clipPath>
</defs>
</svg>

<svg fill="none" viewBox="0 0 16 16" xmlns="http://www.w3.org/2000/svg">
  <g clip-path="url(#Bookmark-Favorite-Color-16_svg__a)">
    <path fill="url(#Bookmark-Favorite-Color-16_svg__b)" d="M10.125.5h-4.25A3.375 3.375 0 0 0 2.5 3.875v9.948c0 1.353 1.512 2.155 2.632 1.398l1.923-1.3a1.688 1.688 0 0 1 1.89 0l1.923 1.3c1.12.758 2.632-.045 2.632-1.398V3.875A3.375 3.375 0 0 0 10.125.5Z"/>
    <path fill="url(#Bookmark-Favorite-Color-16_svg__c)" d="M6.775 13.507c.74-.5 1.71-.5 2.45 0l1.923 1.3A1.188 1.188 0 0 0 13 13.823V3.875A2.875 2.875 0 0 0 10.125 1h-4.25A2.875 2.875 0 0 0 3 3.875v9.948a1.188 1.188 0 0 0 1.853.984l1.922-1.3Zm7.225.316c0 1.753-1.96 2.794-3.412 1.812l-1.923-1.3a1.188 1.188 0 0 0-1.33 0l-1.923 1.3C3.96 16.617 2 15.576 2 13.823V3.875A3.875 3.875 0 0 1 5.875 0h4.25A3.875 3.875 0 0 1 14 3.875v9.948Z"/>
    <path fill="#fff" d="M7.532 4.314a.5.5 0 0 1 .928 0l.582 1.449a.5.5 0 0 0 .43.312l1.558.106a.5.5 0 0 1 .287.882l-1.199 1.001a.5.5 0 0 0-.164.506l.38 1.514a.5.5 0 0 1-.75.546L8.262 9.8a.5.5 0 0 0-.532 0l-1.322.83a.5.5 0 0 1-.751-.546l.38-1.514a.5.5 0 0 0-.163-.506l-1.199-1a.5.5 0 0 1 .287-.883l1.558-.106a.5.5 0 0 0 .43-.312l.582-1.45Z"/>
    <path fill="url(#Bookmark-Favorite-Color-16_svg__d)" d="M6.655 3.827c.545-1.103 2.138-1.103 2.682 0l.051.114.465 1.158 1.245.084.124.013c1.217.178 1.71 1.692.829 2.551l-.093.084-.958.8.305 1.21.026.121c.208 1.213-1.081 2.149-2.17 1.577l-.108-.063-1.057-.663-1.056.663c-1.145.72-2.582-.325-2.253-1.636l.305-1.21-.957-.8c-1.038-.866-.49-2.555.86-2.647L6.139 5.1l.465-1.158.051-.114Zm1.805.486a.5.5 0 0 0-.928 0l-.581 1.45-.032.064a.5.5 0 0 1-.399.248l-1.558.106a.5.5 0 0 0-.286.882l1.198 1.001a.5.5 0 0 1 .164.506l-.38 1.514a.5.5 0 0 0 .677.584l.073-.038L7.73 9.8a.5.5 0 0 1 .532 0l1.322.83a.5.5 0 0 0 .765-.465l-.014-.08-.38-1.515a.5.5 0 0 1 .163-.506l1.199-1a.5.5 0 0 0-.206-.872l-.08-.011-1.559-.106a.5.5 0 0 1-.399-.248l-.031-.064-.582-1.45Z"/>
  </g>
  <defs>
    <linearGradient id="Bookmark-Favorite-Color-16_svg__b" x1="8" x2="8" y1=".5" y2="17" gradientUnits="userSpaceOnUse">
      <stop stop-color="#8FABF9"/>
      <stop offset="1" stop-color="#7295F6"/>
    </linearGradient>
    <linearGradient id="Bookmark-Favorite-Color-16_svg__c" x1="8" x2="8" y1=".5" y2="17" gradientUnits="userSpaceOnUse">
      <stop stop-color="#3969EF"/>
      <stop offset="1" stop-color="#1E42A4"/>
    </linearGradient>
    <linearGradient id="Bookmark-Favorite-Color-16_svg__d" x1="7.996" x2="7.996" y1="4" y2="10.708" gradientUnits="userSpaceOnUse">
      <stop stop-color="#7295F6"/>
      <stop offset="1" stop-color="#557FF3"/>
    </linearGradient>
    <clipPath id="Bookmark-Favorite-Color-16_svg__a">
      <path fill="#fff" d="M0 0h16v16H0z"/>
    </clipPath>
  </defs>
</svg>
